X:25
T:Scottish du Gers
R:Scottish
A:Gascogne
O:France
C:Trad.
I:abc2nwc
M:2/4
L:1/16
K:D
F2G2 A2Bc|d2F2 A4|BAGF EDEF|GABc B2A2|
F2G2 A2Bc|d2F2 A4|BAGF EFGE|D2F2 D4||
d2d2 c4|B2B2 A4|BAGF EDEF|GABc B2A2|d2d2 c4|B2B2 A4|BAGF EFGE|D2F2 D4|]
%%footer $D   Galouvielle-MBe 2005 \nScottish France
